static/img/pages/index/pgwire.svg

<svg width="76" height="76" viewBox="0 0 76 76" fill="none" xmlns="http://www.w3.org/2000/svg">
<circle cx="38" cy="38" r="38" fill="#1E1F27"/>
<path d="M47.0923 19C45.239 19 43.6343 19.5149 42.523 20.0224C41.4331 19.6463 39.6259 19.0037 37.4567 19.4674C36.1928 19.6938 35.0318 20.2306 33.9667 21.0521C32.2128 20.1831 30.3809 19.65 28.4601 19.5623C27.2779 19.4674 22.4601 20.0297 20.7311 22.6442C20.0956 23.6739 19.46 24.9811 19.1867 26.5695C18.9133 27.9717 18.9133 29.5638 19.3677 32.8355C19.6411 35.0775 20.0068 36.5746 20.8234 39.6565C20.9157 39.9377 21.3701 41.4348 22.7334 45.55C23.0033 46.2949 23.55 47.6971 24.64 49.0043C25.3678 49.9391 26.0956 50.5014 27.0045 50.5014C28.1868 50.5014 29.0033 49.6616 29.7312 48.7268C29.7844 48.6647 29.8412 48.5954 29.8945 48.5333C29.827 48.6428 29.7667 48.7633 29.7312 48.913C29.5501 49.8478 30.64 50.5964 31.5489 50.9688C32.2767 51.3413 33.0933 51.4362 33.7288 51.4362C34.5454 51.4362 35.1845 51.25 35.5466 51.1587C35.859 51.0492 36.5336 50.7497 37.2543 50.2568C37.2863 52.6449 37.3076 55.4638 37.3644 56.1101C37.6377 58.542 38.2733 60.2217 39.4555 61.1565C40.3644 61.9051 42.0011 62 42.0934 62C43.7266 62 46.2722 60.879 47.3621 59.1044C47.9089 58.2609 48.0899 57.5123 48.271 56.4826C48.4521 55.9239 48.6331 52.6522 48.7254 51.9986C48.8497 50.9652 48.9456 49.9464 49.0414 48.9569C49.6414 49.1175 50.3799 49.2891 51.1823 49.2891C52.6344 49.2891 54.5444 48.2594 54.9066 48.0695C55.6344 47.5109 57.0865 46.2036 56.451 45.0826C56.0888 44.4254 55.5421 44.4254 54.1788 44.6152C54.1788 44.6152 51.9988 44.8927 51.8142 44.7978C51.6829 44.7467 51.4805 44.6152 51.2533 44.4436C51.7255 43.6914 52.1444 42.9465 52.6344 42.2783C53.7243 40.1275 54.3634 38.4442 54.8178 37.137C55.6344 34.8 56.0888 32.9268 56.3587 31.6196C56.9977 28.8152 57.1788 27.508 56.8131 26.0109C56.0888 23.3927 53.4509 21.1507 52.361 20.4971C51.6332 20.121 49.8189 19 47.0923 19ZM47.0923 20.8696C49.3645 20.8696 50.9089 21.8043 51.7255 22.1768C52.7267 22.7391 54.9989 24.6087 55.1799 26.3833C55.2723 27.413 55.361 28.4428 54.7255 31.1522C54.3634 32.4594 53.9977 34.1427 53.1776 36.4797C52.7231 37.7869 52.1799 39.379 51.09 41.3435C51.0616 41.391 51.0296 41.4421 51.0012 41.4932C51.1077 41.0988 51.1823 40.7812 51.1823 40.7812C51.3633 39.8464 51.3633 39.0978 51.271 37.9768C51.1787 37.4145 51.09 36.0123 51.09 35.45C51.09 35.1725 51.3598 32.2732 51.4521 31.2435C51.5444 29.5638 50.5432 27.5043 50.2734 27.1319C48.9101 24.9811 48.1822 23.7689 46.7266 22.5529C46.3645 22.2352 45.7432 21.7058 44.8982 21.1726C45.5656 21.0047 46.3041 20.8696 47.0923 20.8696ZM39.0614 21.253C40.2472 21.2822 41.252 21.6181 42.0011 21.8993C43.9112 22.5529 45.0899 23.579 45.6366 24.0464C46.8189 25.0761 47.4544 26.1058 48.8177 28.2565C48.9172 28.461 49.1763 28.8956 49.3823 29.5017C47.5219 29.3264 46.2864 29.9983 45.5443 30.6848C44.4544 31.6196 44.5431 33.0217 44.6355 34.0478C44.6355 34.7964 44.8201 35.7348 46.1834 38.9116C46.7266 40.3138 47.2698 41.8072 47.8166 42.837C48.1006 43.4175 48.4485 43.9507 48.8213 44.4254C48.6047 44.5386 48.3846 44.6846 48.1787 44.8927C47.6355 45.5464 47.5432 46.2036 47.3621 47.4196C47.181 48.3544 47 50.3152 46.9077 51.9036C46.9077 52.5572 46.6378 55.7377 46.5455 56.2051C46.2722 57.1399 46.1798 57.6073 45.8177 58.1696C45.1822 59.1957 43.1834 60.0392 42.0011 59.9442C41.639 59.9442 41.0922 59.9442 40.6378 59.5718C39.6366 58.8232 39.2745 57.1399 39.1821 55.8326C39.0898 54.8978 39.1821 48.1645 39.0011 46.6674C38.9088 46.2949 38.82 45.3601 38.0922 44.7065C37.7869 44.4436 37.1549 44.3085 36.5584 44.2172C36.5655 43.9032 36.5833 43.5892 36.6401 43.3043C36.7289 42.742 36.9099 42.4609 37.0945 41.9935C37.1833 41.7159 37.3644 41.3435 37.549 40.8761C38.3656 38.258 38.1809 34.7964 37.7265 32.6456C37.6377 32.4594 37.2721 30.9659 36.001 30.1261C34.6377 29.2826 33.1821 29.75 32.3655 30.0312C32.0282 30.1261 31.6945 30.2758 31.3608 30.4511C31.4176 30.0604 31.4673 29.666 31.5489 29.2826C31.9111 27.413 32.2767 25.8246 33.459 24.2362C34.73 22.6442 36.1821 21.6181 37.8188 21.337C38.252 21.2676 38.6673 21.242 39.0614 21.253ZM27.8388 21.4173C28.0518 21.4136 28.2329 21.4173 28.3678 21.4319C29.788 21.5086 31.1477 21.8518 32.4969 22.4361C32.33 22.6259 32.1631 22.8158 32.0034 23.0203C30.459 24.8899 30.0933 26.8507 29.7312 28.8152C29.2767 31.1522 29.1844 33.5804 29.5465 36.0123L29.369 37.7869C29.2767 38.7217 29.0921 40.5 30.0933 42.3696C30.4448 42.9903 30.8318 43.5161 31.2578 43.9653C30.3347 45.2214 29.3548 46.4081 28.3678 47.5109C27.8211 48.1645 27.3666 48.6319 27.0045 48.6319C26.9122 48.6319 26.5501 48.4457 26.0033 47.792C25.0021 46.671 24.64 45.4551 24.4589 44.9877C23.369 41.621 22.7334 39.4703 22.6411 39.1891C21.9133 36.1985 21.5512 34.7051 21.1855 32.5543C20.7311 29.5638 20.7311 28.0667 21.0044 26.8544C21.2778 25.5435 21.7323 24.5138 22.1867 23.7689C23.3015 21.9687 26.3619 21.4575 27.8388 21.4173ZM48.6935 31.269C48.9846 31.269 49.3006 31.3055 49.6343 31.3786C49.6237 32.2513 49.2722 34.9899 49.2722 35.3587C49.2722 36.1073 49.4533 37.6007 49.4533 38.163C49.5456 39.1928 49.5456 39.7514 49.4533 40.5C49.4533 40.5 49.3183 41.1682 49.1799 41.6429C48.7574 40.6607 48.2887 39.4885 47.7242 38.163C46.3609 34.9862 46.2722 34.3326 46.2722 33.8652C46.2722 33.208 46.2722 32.3681 46.8154 31.9957C47.3266 31.5283 47.9479 31.2763 48.6935 31.269ZM34.5845 31.5429C34.7655 31.5648 34.9324 31.6196 35.0922 31.7109C35.82 32.087 36.001 33.0217 36.001 33.0217C36.4555 35.0775 36.6366 38.163 35.9087 40.2188C35.82 40.5913 35.6389 40.8725 35.5466 41.1536C35.3655 41.621 35.1845 42.0884 34.9999 42.9282C34.9537 43.2751 34.9324 43.6184 34.9217 43.9616C34.2933 43.8265 33.7004 43.5965 33.2744 43.3043C32.5466 42.9319 32.0034 42.2746 31.6412 41.5261C31.0022 40.1239 31.0945 38.8167 31.1868 38.0718L31.3643 35.9174C31.2365 34.8657 31.1761 33.8105 31.1903 32.7625C31.6093 32.3937 32.156 32.0176 32.9123 31.8058C33.459 31.667 34.0555 31.4735 34.5845 31.5429ZM47.987 32.1709C47.7491 32.1819 47.497 32.2257 47.3621 32.2732C47 32.3681 46.9077 32.3681 46.8154 32.5543C46.7266 32.7406 47 33.0217 47.0923 33.208C47.181 33.208 47.4544 33.4891 47.8166 33.3978C48.0899 33.3029 48.271 33.1167 48.3633 33.0217C48.4556 32.9268 48.8177 32.4594 48.5444 32.2732C48.4521 32.1782 48.2248 32.1563 47.987 32.1709ZM34.3785 32.8501C34.2791 32.8574 34.1833 32.883 34.091 32.9305C34.0022 32.9305 33.8211 33.0217 33.7288 33.208C33.6365 33.3942 33.7288 33.5804 33.8211 33.6754C34.0022 33.9565 34.2756 34.2377 34.73 34.2377C34.8223 34.2377 35.1845 34.2377 35.4543 33.9565C35.4543 33.9565 35.7312 33.6754 35.7312 33.3978C35.6389 33.208 35.4578 33.1167 35.1845 33.0217C34.9785 32.9524 34.6732 32.8282 34.3785 32.8501ZM32.7063 45.0826C33.2637 45.3894 33.9347 45.6377 34.6697 45.8093C34.4744 46.2109 34.1939 46.5432 33.9134 46.7623C33.2744 47.2297 32.4578 47.5109 31.6412 47.6971C31.4566 47.6971 31.3679 47.792 31.1868 47.792C30.7466 47.9198 30.3205 48.0622 30.0294 48.3726C30.9205 47.3539 31.8152 46.2292 32.7063 45.0826ZM50.2308 45.8312C50.6284 46.1379 51.019 46.3643 51.3598 46.4848C51.9065 46.671 52.361 46.671 53.9977 46.4848C53.7243 46.7623 52.9077 47.2297 51.7255 47.4196C50.9657 47.4963 50.0213 47.31 49.2544 47.0836C49.3254 46.5542 49.4071 46.2511 49.542 46.1087C49.5917 46.0612 49.8935 45.9663 50.2308 45.8312ZM36.5442 46.1123C36.7324 46.1452 36.8815 46.1708 36.9099 46.2C37.091 46.3899 37.1833 46.8573 37.1833 47.0435C37.194 47.2041 37.2011 47.6095 37.2082 47.8906C36.459 48.7925 35.2555 49.2928 34.9999 49.3804C34.6377 49.5667 33.5478 49.7529 32.4578 49.3804C33.3667 49.0993 34.2756 48.8218 34.9999 48.2594C35.6354 47.792 36.1821 47.0471 36.5442 46.1123Z" fill="white"/>
</svg>

<svg width="76" height="76" viewBox="0 0 76 76" fill="none" xmlns="http://www.w3.org/2000/svg"><circle cx="38" cy="38" r="38" fill="#1E1F27"/><path d="M47.092 19c-1.853 0-3.458.515-4.569 1.022-1.09-.376-2.897-1.018-5.066-.555-1.264.227-2.425.764-3.49 1.585-1.754-.869-3.586-1.402-5.507-1.49-1.182-.095-6 .468-7.729 3.082-.635 1.03-1.271 2.337-1.544 3.926-.274 1.402-.274 2.994.18 6.266.274 2.242.64 3.739 1.456 6.82.093.282.547 1.779 1.91 5.894.27.745.817 2.147 1.907 3.454.728.935 1.456 1.497 2.364 1.497 1.183 0 2-.84 2.727-1.774l.163-.194c-.067.11-.127.23-.163.38-.18.935.909 1.683 1.818 2.056.728.372 1.544.467 2.18.467.816 0 1.456-.186 1.818-.277.312-.11.987-.41 1.707-.902.032 2.388.054 5.207.11 5.853.274 2.432.91 4.112 2.092 5.047.908.748 2.545.843 2.637.843 1.634 0 4.18-1.121 5.27-2.896.546-.843.727-1.592.908-2.621.181-.56.362-3.83.454-4.484.125-1.034.22-2.053.316-3.042.6.16 1.339.332 2.141.332 1.452 0 3.362-1.03 3.725-1.22.727-.558 2.18-1.865 1.544-2.986-.362-.658-.909-.658-2.272-.468 0 0-2.18.278-2.365.183-.131-.051-.334-.183-.56-.354.471-.753.89-1.498 1.38-2.166a40.033 40.033 0 002.184-5.141 42.908 42.908 0 001.54-5.517c.64-2.805.82-4.112.455-5.61-.724-2.617-3.362-4.86-4.452-5.513-.728-.376-2.542-1.497-5.269-1.497zm0 1.87c2.273 0 3.817.934 4.633 1.307 1.002.562 3.274 2.432 3.455 4.206.092 1.03.181 2.06-.455 4.77-.362 1.306-.727 2.99-1.547 5.327-.455 1.307-.998 2.899-2.088 4.864-.028.047-.06.098-.089.15.107-.395.181-.713.181-.713.181-.935.181-1.683.089-2.804-.092-.563-.181-1.965-.181-2.527 0-.278.27-3.177.362-4.207.092-1.68-.909-3.739-1.179-4.111-1.363-2.15-2.09-3.363-3.546-4.58a14.311 14.311 0 00-1.829-1.38c.668-.167 1.406-.302 2.194-.302zm-8.03.383c1.185.03 2.19.365 2.94.646 1.91.654 3.088 1.68 3.635 2.147 1.182 1.03 1.817 2.06 3.18 4.21.1.205.36.64.565 1.246-1.86-.176-3.096.496-3.838 1.183-1.09.935-1 2.337-.908 3.363 0 .748.184 1.687 1.547 4.864.544 1.402 1.087 2.895 1.634 3.925a8.97 8.97 0 001.004 1.588 2.58 2.58 0 00-.642.468c-.544.653-.636 1.31-.817 2.527-.181.934-.362 2.895-.454 4.484 0 .653-.27 3.834-.363 4.301-.273.935-.365 1.402-.727 1.965-.636 1.026-2.635 1.87-3.817 1.774-.362 0-.909 0-1.363-.372-1.001-.749-1.363-2.432-1.456-3.74-.092-.934 0-7.668-.18-9.165-.093-.372-.182-1.307-.91-1.96-.305-.263-.937-.398-1.534-.49.008-.314.025-.628.082-.913.089-.562.27-.843.454-1.31.09-.278.27-.65.455-1.118.817-2.618.632-6.08.178-8.23-.09-.187-.455-1.68-1.726-2.52-1.363-.843-2.819-.376-3.636-.095a5.242 5.242 0 00-1.004.42c.057-.39.106-.785.188-1.168.362-1.87.728-3.458 1.91-5.047 1.271-1.592 2.723-2.618 4.36-2.899.433-.07.848-.095 1.242-.084zm-11.223.164c.213-.003.394 0 .529.015 1.42.077 2.78.42 4.129 1.004-.167.19-.334.38-.494.584-1.544 1.87-1.91 3.83-2.272 5.795a21.254 21.254 0 00-.184 7.197l-.178 1.775c-.092.935-.277 2.713.724 4.583.352.62.739 1.146 1.165 1.595a47.664 47.664 0 01-2.89 3.546c-.547.653-1.001 1.12-1.363 1.12-.093 0-.455-.185-1.002-.839-1-1.121-1.363-2.337-1.544-2.804-1.09-3.367-1.726-5.518-1.818-5.799-.728-2.99-1.09-4.484-1.455-6.635-.455-2.99-.455-4.487-.182-5.7.274-1.31.728-2.34 1.183-3.085 1.114-1.8 4.175-2.311 5.652-2.352zm20.855 9.852c.29 0 .607.037.94.11-.01.872-.362 3.61-.362 3.98 0 .748.181 2.242.181 2.804.093 1.03.093 1.588 0 2.337 0 0-.135.668-.273 1.143-.423-.982-.891-2.154-1.456-3.48-1.363-3.177-1.452-3.83-1.452-4.298 0-.657 0-1.497.543-1.87a2.73 2.73 0 011.879-.726zm-14.11.274c.181.022.348.077.508.168.728.376.909 1.31.909 1.31.455 2.056.636 5.142-.092 7.198-.089.372-.27.654-.362.935-.181.467-.362.934-.547 1.774a10.2 10.2 0 00-.078 1.034c-.629-.136-1.222-.366-1.648-.658-.727-.372-1.27-1.03-1.633-1.778-.639-1.402-.546-2.71-.454-3.454l.177-2.155a23.532 23.532 0 01-.174-3.154 4.324 4.324 0 011.722-.957c.547-.139 1.144-.332 1.672-.263zm13.403.628c-.238.01-.49.055-.625.102-.362.095-.454.095-.547.281-.088.187.185.468.277.654.089 0 .362.281.725.19a1.41 1.41 0 00.546-.376c.093-.095.455-.563.181-.749-.092-.095-.32-.117-.557-.102zm-13.608.68a.739.739 0 00-.288.08c-.089 0-.27.09-.362.277-.093.186 0 .372.092.467.181.282.455.563.909.563.092 0 .455 0 .724-.282 0 0 .277-.28.277-.558-.092-.19-.273-.281-.547-.376-.206-.07-.51-.194-.805-.172zm-1.673 12.232a7.774 7.774 0 001.964.726 2.764 2.764 0 01-.757.953c-.639.468-1.455.749-2.272.935-.184 0-.273.095-.454.095-.44.128-.867.27-1.158.58.892-1.018 1.786-2.143 2.677-3.29zm17.525.748c.397.307.788.533 1.129.654.547.186 1.001.186 2.638 0-.274.277-1.09.745-2.273.935-.76.076-1.704-.11-2.47-.336.07-.53.152-.833.287-.975.05-.048.352-.143.689-.278zm-13.687.281c.188.033.338.059.366.088.181.19.273.657.273.843.011.161.018.566.025.848-.749.901-1.953 1.402-2.208 1.49-.362.186-1.452.372-2.542 0 .909-.282 1.818-.56 2.542-1.122.635-.467 1.182-1.212 1.544-2.147z" fill="#fff"/></svg>
